!!!!SEGMENT: pl-kk--kk-i-1--004-005_jachet-de-mantua--missa-quam-pulchra-es-agnus-dei.krn
!!!cenid: 15xx:672
!!!COM: Jachet de Mantua
!!!COM-rismID: pe30003816
!!!CDT: 1483-1559/10/02
!!!CNT: French
!!!OPR: [Missa] Quam pulchra es
!!!OTL: Agnus Dei
!!!OMV: 005
!!!PDT:
!!!AGN:
!!!SMS-siglum: PL-Kk
!!!SMS-shelfmark: Kk.I.1
!!!SMS-shelfwork: 004-005 M
!!!SMS-variant:
!!!SMS-altvar:
!!!NIFC-rismSourceID: 300257954
!!!NIFC-rismChildID: 300257958
!!!NIFC-islandoraID: pl-kk:1
!!!URL-pdf-islandora: https://repozytorium.nifc.pl/islandora/object/pl-kk%3A1/datastream/PDF/view
!!!URL-scan: https://polish.musicsources.pl/pl/lokalizacje/galeria/rekopisy/5736 @EN{Scan on Polish Music Sources Website} @PL{Skany w portalu Dziedzictwo Muzyki Polskiej w otwartym dostępie}
!!!ONB-nifc: UWAGA: Cantus (s. 21v-30v, skan 0024-0033), Altus (s. 21r-31r, skan 0213-0223), Tenor (s. 22r-31r, skan 0410-0419), Bassus (s. 20v-30r, skan 0582-0591). Części Mszy: 1. Kyrie, 2. Et in terra, 3. Patrem, 4. Sanctus, 5. Agnus Dei
!!!AIN: 1 alto 2 bass 2 soprn 1 tenor
!!!key: F
**kern	**text	**kern	**text	**kern	**text	**kern	**text	**kern	**kern	**text
*part6	*part6	*part5	*part5	*part4	*part4	*part3	*part3	*part2	*part1	*part1
*staff6	*staff6	*staff5	*staff5	*staff4	*staff4	*staff3	*staff3	*staff2	*staff1	*staff1
*I"Bassus secundus (canon)	*	*I"BASSVS	*	*I"TENOR	*	*I"ALTVS	*	*I"Cantus secundus (canon)	*I"CANTVS	*
*I'B 2	*	*I'B	*	*I'T	*	*I'A	*	*I'S 2	*I'S	*
*Ibass	*	*Ibass	*	*Itenor	*	*Ialto	*	*Isoprn	*Isoprn	*
*ICvox	*	*ICvox	*	*ICvox	*	*ICvox	*	*ICvox	*ICvox	*
*clefF4	*	*clefF4	*	*clefC4	*	*clefC4	*	*clefC4	*clefC4	*
*k[b-]	*	*k[b-]	*	*k[b-]	*	*k[b-]	*	*k[b-]	*k[b-]	*
*F:	*	*F:	*	*F:	*	*F:	*	*F:	*F:	*
*M2/1	*	*M2/1	*	*M2/1	*	*M2/1	*	*M2/1	*M2/1	*
*met(C|)	*	*met(C|)	*	*met(C|)	*	*met(C|)	*	*met(C|)	*met(C|)	*
*all\right	*	*all\right	*	*all\right	*	*all\right	*	*	*all\right	*
=1-	=1-	=1-	=1-	=1-	=1-	=1-	=1-	=1-	=1-	=1-
*	*	*xywh-#590:1129,501,4185,997	*	*xywh-#418:993,2835,4518,1186	*	*xywh-#221:5776,1991,4317,1020	*	*	*xywh-#31:1120,2832,4421,953	*
!	!	!	!	!	!	!	!	!	!LO:TX:t=P:problem=kreska pseudotaktowa	!
0ryy	.	00r	.	00r	.	0F	A-	0ryy	00r	.
=2-	=2-	=2-	=2-	=2-	=2-	=2-	=2-	=2-	=2-	=2-
!	!	!	!	!	!	!LO:TX:t=P:problem=kreska pseudotaktowa	!	!	!	!
0ryy	.	.	.	.	.	1F	-gnus	0ryy	.	.
.	.	.	.	.	.	1B-	de-	.	.	.
=3-	=3-	=3-	=3-	=3-	=3-	=3-	=3-	=3-	=3-	=3-
!	!	!LO:TX:t=P:problem=kreska pseudotaktowa	!	!	!	!LO:TX:t=P:problem=kreska pseudotaktowa	!	!	!	!
0ryy	.	00r	.	00r	.	1A	-i,	0ryy	0F	A-
.	.	.	.	.	.	2r	.	.	.	.
*	*	*	*	*	*	*	*ij	*	*	*
!	!	!	!	!	!	!LO:TX:t=P:problem=kreska pseudotaktowa	!	!	!	!
.	.	.	.	.	.	2F/	A-	.	.	.
=4-	=4-	=4-	=4-	=4-	=4-	=4-	=4-	=4-	=4-	=4-
0ryy	.	.	.	.	.	1c	-gnus	0ryy	1F	-gnus
.	.	.	.	.	.	1d	de-	.	1B-	de-
=5-	=5-	=5-	=5-	=5-	=5-	=5-	=5-	=5-	=5-	=5-
!	!	!	!	!LO:TX:t=P:problem=kreska pseudotaktowa	!	!LO:TX:t=P:problem=kreska pseudotaktowa	!	!	!LO:TX:t=P:problem=kreska pseudotaktowa	!
0ryy	.	0FF	A-	00r	.	1c	-i	0ryy	1A	-i,
*	*	*	*	*	*	*	*Xij	*	*	*
.	.	.	.	.	.	2A/	qui	.	2r	.
*	*	*	*	*	*	*2\right	*	*	*	*ij
.	.	.	.	.	.	2.c\	tol-	.	2F/	A-
=6-	=6-	=6-	=6-	=6-	=6-	=6-	=6-	=6-	=6-	=6-
0ryy	.	1FF	-gnus	.	.	.	.	0ryy	1c	.
.	.	.	.	.	.	4B-/	-lis	.	.	.
.	.	.	.	.	.	4A/	.	.	.	.
!	!	!	!	!	!	!LO:TX:t=P:problem=kreska pseudotaktowa	!	!	!	!
.	.	.	.	.	.	4G/	.	.	.	.
.	.	1BB-	de-	.	.	2F/	.	.	1d	.
!	!	!	!	!	!	!LO:TX:t=P:problem=kreska pseudotaktowa	!	!	!	!
.	.	.	.	.	.	2G/	.	.	.	.
=7-	=7-	=7-	=7-	=7-	=7-	=7-	=7-	=7-	=7-	=7-
!	!	!LO:TX:t=P:problem=kreska pseudotaktowa	!	!	!	!	!	!	!LO:TX:t=P:problem=kreska pseudotaktowa	!
0ryy	.	1AA	-i,	0C	A-	2C/	.	0ryy	1c	.
*	*	*	*	*	*	*	*ij	*	*	*
.	.	.	.	.	.	2.c\	A-	.	.	.
.	.	2r	.	.	.	.	.	.	2A/	-gnus
*	*	*	*	*	*	*custos:A	*	*	*	*
.	.	.	.	.	.	4B-\	.	.	.	.
*	*	*	*ij	*	*	*	*	*	*2\right	*
*	*	*	*	*	*	*xywh-#221:5805,2783,4317,951	*	*	*	*
!	!	!	!	!	!	!LO:TX:t=P:problem=kreska pseudotaktowa	!	!	!	!
!	!	!	!	!	!	!LO:LB:g=original	!	!	!	!
.	.	2FF/	A-	.	.	2A/	.	.	2.c\	de-
=8-	=8-	=8-	=8-	=8-	=8-	=8-	=8-	=8-	=8-	=8-
*	*	*lig	*	*	*	*	*	*	*	*
!	!	!	!	!LO:TX:t=P:problem=kreska pseudotaktowa	!	!	!	!	!	!
0ryy	.	1C	-gnus	1C	-gnus	2G/	-gnus	0ryy	.	.
.	.	.	.	.	.	.	.	.	4B-\	.
.	.	.	.	.	.	2c\	de-	.	4A/	.
!	!	!	!	!	!	!	!	!	!LO:TX:t=P:problem=kreska pseudotaktowa	!
.	.	.	.	.	.	.	.	.	4G/	.
.	.	1D	.	1F	de-	2A/	.	.	4F/	.
.	.	.	.	.	.	.	.	.	4G/	.
*	*	*	*	*	*	*	*	*	*custos:G	*
!	!	!	!	!	!	!LO:TX:t=P:problem=kreska pseudotaktowa	!	!	!	!
.	.	.	.	.	.	2F/	.	.	1A\	.
*	*	*Xlig	*	*	*	*	*	*	*	*
=9-	=9-	=9-	=9-	=9-	=9-	=9-	=9-	=9-	=9-	=9-
!	!	!	!	!LO:TX:t=P:problem=kreska pseudotaktowa	!	!	!	!	!	!
0ryy	.	2.C/	de-	1E	-i	2c\	-i	0ryy	.	.
*	*	*	*	*	*	*	*	*	*xywh-#31:5790,567,4381,1011	*
!	!	!	!	!	!	!	!	!	!LO:TX:t=P:problem=kreska pseudotaktowa	!
!	!	!	!	!	!	!	!	!	!LO:PB:g=original	!
.	.	.	.	.	.	4C/	qui	.	2G/	.
!	!	!LO:TX:t=P:problem=kreska pseudotaktowa	!	!	!	!LO:TX:t=P:problem=kreska pseudotaktowa	!	!	!	!
.	.	4BB-/	.	.	.	4D/	.	.	.	.
.	.	2AA/	.	2r	.	4E/	.	.	1c	.
.	.	.	.	.	.	4C/	.	.	.	.
*	*	*	*	*	*ij	*	*	*	*	*
.	.	2FF/	.	2C/	A-	1F/	tol-	.	.	.
=10-	=10-	=10-	=10-	=10-	=10-	=10-	=10-	=10-	=10-	=10-
*	*	*	*	*lig	*	*	*	*	*	*
!	!	!	!	!	!	!	!	!	!LO:TX:t=P:problem=kreska pseudotaktowa	!
0ryy	.	1GG	.	1G	-gnus	.	.	0ryy	1B-	-i
!	!	!	!	!	!	!LO:TX:t=P:problem=kreska pseudotaktowa	!	!	!	!
.	.	.	.	.	.	2E/	.	.	.	.
!	!	!	!	!	!	!	!	!	!	!
!	!	!LO:TX:t=P:problem=kreska pseudotaktowa	!	!LO:TX:t=P:problem=kreska pseudotaktowa	!	!LO:TX:t=P:problem=kreska pseudotaktowa	!	!	!	!
.	.	1FF	-i	1A	.	1F	-lis	.	2r	.
*	*	*	*Xij	*	*	*	*	*	*	*
.	.	.	.	.	.	.	.	.	2A/	A-
*	*	*	*	*Xlig	*	*	*	*	*	*
=11-	=11-	=11-	=11-	=11-	=11-	=11-	=11-	=11-	=11-	=11-
0ryy	.	0r	.	2.G/	de-	2r	.	0ryy	2B-/	.
.	.	.	.	.	.	1G	A-	.	4G/	.
!	!	!	!	!	!	!	!	!	!LO:TX:t=P:problem=kreska pseudotaktowa	!
.	.	.	.	4F/	.	.	.	.	4A/	.
.	.	.	.	2E/	.	.	.	.	4B-/	.
.	.	.	.	.	.	.	.	.	4G/	.
!	!	!	!	!LO:TX:t=P:problem=kreska pseudotaktowa	!	!LO:TX:t=P:problem=kreska pseudotaktowa	!	!	!	!
.	.	.	.	2C/	.	2E/	-gnus	.	1c\	.
=12-	=12-	=12-	=12-	=12-	=12-	=12-	=12-	=12-	=12-	=12-
*	*	*custos:GG	*	*	*	*	*	*	*	*
0ryy	.	2r	.	1D	.	2F/	.	0ryy	.	.
*	*	*xywh-#590:969,1208,4350,992	*	*	*	*	*	*	*	*
!	!	!LO:TX:t=P:problem=kreska pseudotaktowa	!	!	!	!LO:TX:t=P:problem=kreska pseudotaktowa	!	!	!LO:TX:t=P:problem=kreska pseudotaktowa	!
!	!	!LO:LB:g=original	!	!	!	!	!	!	!	!
.	.	2GG/	qui	.	.	2G/	.	.	2B-\	.
!	!	!	!	!LO:TX:t=P:problem=kreska pseudotaktowa	!	!	!	!	!	!
.	.	2AA/	tol-	1C	-i	2E/	de-	.	2c\	-gnus
*	*	*	*	*	*Xij	*	*	*	*	*
.	.	2FF/	-lis	.	.	2F/	.	.	2F/	de-
=13-	=13-	=13-	=13-	=13-	=13-	=13-	=13-	=13-	=13-	=13-
*	*	*	*	*	*	*custos:C	*	*	*	*
!	!	!	!	!	!	!LO:TX:t=P:problem=kreska pseudotaktowa	!	!	!	!
0ryy	.	1F	pec-	0r	.	1D	-i	0ryy	2A/	.
!	!	!	!	!	!	!	!	!	!LO:TX:t=P:problem=kreska pseudotaktowa	!
.	.	.	.	.	.	.	.	.	2B-/	.
*	*	*2\right	*	*	*	*	*	*	*	*
*	*	*	*	*	*	*xywh-#222:1165,529,4264,951	*	*	*	*
!	!	!	!	!	!	!LO:PB:g=original	!	!	!	!
.	.	2E\	-ca-	.	.	2C/	qui	.	1c	.
!	!	!LO:TX:t=P:problem=kreska pseudotaktowa	!	!	!	!	!	!	!	!
.	.	2F\	-ta	.	.	1c\	tol-	.	.	.
=14-	=14-	=14-	=14-	=14-	=14-	=14-	=14-	=14-	=14-	=14-
*	*	*	*	*	*	*	*	*	*lig	*
0ryy	.	1D	.	2r	.	.	.	0ryy	1F	-i
*	*	*	*	*	*	*	*	*	*	*Xij
!	!	!	!	!LO:TX:t=P:problem=kreska pseudotaktowa	!	!	!	!	!	!
.	.	.	.	2D/	qui	2B-\	.	.	.	.
*	*	*	*	*custos:C	*	*	*	*	*	*
!	!	!	!	!	!	!LO:TX:t=P:problem=kreska pseudotaktowa	!	!	!LO:TX:t=P:problem=kreska pseudotaktowa	!
.	.	2.C/	.	2E/	tol-	1c	-lis	.	1G	.
*	*	*	*	*	*	*	*Xij	*	*	*
*	*	*	*	*xywh-#418:5861,527,4445,917	*	*	*	*	*	*
!	!	!	!	!LO:PB:g=original	!	!	!	!	!	!
!	!	!	!	!LO:TX:t=P:problem=kreska pseudotaktowa	!	!	!	!	!	!
.	.	.	.	2C/	-lis	.	.	.	.	.
!	!	!LO:TX:t=P:problem=kreska pseudotaktowa	!	!	!	!	!	!	!	!
.	.	4D/	.	.	.	.	.	.	.	.
*	*	*	*	*	*	*	*	*	*Xlig	*
=15-	=15-	=15-	=15-	=15-	=15-	=15-	=15-	=15-	=15-	=15-
0ryy	.	2E\	.	1c	pec-	2r	.	0ryy	1r	.
.	.	2F\	.	.	.	2f\	pec-	.	.	.
*	*	*	*	*2\right	*	*	*	*	*	*
.	.	2G\	.	2B-\	-ca-	2d\	-ca-	.	2r	.
*	*	*	*	*	*	*	*	*	*custos:D	*
!	!	!LO:TX:t=P:problem=kreska pseudotaktowa	!	!LO:TX:t=P:problem=kreska pseudotaktowa	!	!LO:TX:t=P:problem=kreska pseudotaktowa	!	!	!LO:TX:t=P:problem=kreska pseudotaktowa	!
.	.	2C/	mun-	2c\	-ta	2e\	-ta	.	2C/	qui
=16-	=16-	=16-	=16-	=16-	=16-	=16-	=16-	=16-	=16-	=16-
*	*	*	*	*	*	*	*	*	*xywh-#31:5831,1399,4225,884	*
!	!	!	!	!	!	!	!	!	!LO:LB:g=original	!
0ryy	.	1F	.	1A	mun-	2f\	mun-	0ryy	2.D/	tol-
.	.	.	.	.	.	2d\	.	.	.	.
.	.	.	.	.	.	.	.	.	8E/L	-lis
.	.	.	.	.	.	.	.	.	8F/J	.
!	!	!LO:TX:t=P:problem=kreska pseudotaktowa	!	!	!	!LO:TX:t=P:problem=kreska pseudotaktowa	!	!	!	!
.	.	1E	-di,	2.G/	-di	1e	-di	.	2C/	.
.	.	.	.	.	.	.	.	.	2.G/	pec-
!	!	!	!	!LO:TX:t=P:problem=kreska pseudotaktowa	!	!	!	!	!	!
.	.	.	.	4A/	.	.	.	.	.	.
=17-	=17-	=17-	=17-	=17-	=17-	=17-	=17-	=17-	=17-	=17-
0ryy	.	2r	.	2B-\	.	0r	.	0ryy	.	.
.	.	.	.	.	.	.	.	.	4F/	-ca-
*	*	*	*ij	*	*	*	*	*	*	*
!	!	!LO:TX:t=P:problem=kreska pseudotaktowa	!	!	!	!	!	!	!LO:TX:t=P:problem=kreska pseudotaktowa	!
.	.	2C/	pec-	2c\	.	.	.	.	2E/	.
.	.	2BB-/	-ca-	2d\	.	.	.	.	2D/	-ta
*	*	*custos:AA	*	*	*	*	*	*	*	*
!	!	!LO:TX:t=P:problem=kreska pseudotaktowa	!	!LO:TX:t=P:problem=kreska pseudotaktowa	!	!	!	!	!	!
.	.	2C/	.	2G/	.	.	.	.	2E/	mun-
=18-	=18-	=18-	=18-	=18-	=18-	=18-	=18-	=18-	=18-	=18-
*	*	*xywh-#590:912,1989,4396,940	*	*	*	*	*	*	*	*
!	!	!	!	!	!	!LO:TX:t=P:problem=kreska pseudotaktowa	!	!	!	!
0ryy	.	2AA/	-ta	1c	.	1r	.	0ryy	2C/	-di
.	.	2FF/	.	.	.	.	.	.	2.F/	.
!	!	!	!	!LO:TX:t=P:problem=kreska pseudotaktowa	!	!	!	!	!	!
.	.	1GG	mun-	1B-	.	2r	.	.	.	.
.	.	.	.	.	.	.	.	.	4E/	.
*	*	*	*	*	*	*	*ij	*	*	*
!	!	!	!	!	!	!	!	!	!LO:TX:t=P:problem=poprawka wysokości	!
.	.	.	.	.	.	1g\	pec-	.	4E/	.
!	!	!	!	!	!	!	!	!	!LO:TX:t=P:problem=poprawka wysokości	!
.	.	.	.	.	.	.	.	.	4D/	.
=19-	=19-	=19-	=19-	=19-	=19-	=19-	=19-	=19-	=19-	=19-
!	!	!LO:TX:t=P:problem=kreska pseudotaktowa	!	!	!	!	!	!	!	!
0ryy	.	1C	-di	2r	.	.	.	0ryy	2E/	.
*	*	*	*Xij	*	*ij	*	*	*	*	*
!	!	!	!	!LO:TX:t=P:problem=kreska pseudotaktowa	!	!LO:TX:t=P:problem=kreska pseudotaktowa	!	!	!	!
.	.	.	.	2G/	pec-	2e\	-ca-	.	2C/	.
!	!	!	!	!	!	!	!	!	!LO:TX:t=P:problem=kreska pseudotaktowa	!
.	.	2r	.	2F/	-ca-	2f\	-ta	.	1D	.
!	!	!	!	!LO:TX:t=P:problem=kreska pseudotaktowa	!	!	!	!	!	!
.	.	2GG/	mi-	2G/	.	2d\	mun-	.	.	.
=20-	=20-	=20-	=20-	=20-	=20-	=20-	=20-	=20-	=20-	=20-
!	!	!	!	!	!	!LO:TX:t=P:problem=kreska pseudotaktowa	!	!	!	!
0ryy	.	1AA	-ſe-	2E/	-ta	1c	-di	0ryy	2r	.
*	*	*	*	*	*	*	*Xij	*	*	*ij
!	!	!	!	!	!	!	!	!	!LO:TX:t=P:problem=kreska pseudotaktowa	!
.	.	.	.	2C/	.	.	.	.	2A\	qui
*	*	*	*	*custos:G	*	*	*	*	*	*
*	*	*	*	*	*	*	*	*	*custos:G	*
!	!	!LO:TX:t=P:problem=kreska pseudotaktowa	!	!LO:TX:t=P:problem=kreska pseudotaktowa	!	!	!	!	!	!
.	.	1BB-	-re-	1D	mun-	2r	.	.	2F/	.
*	*	*	*	*	*	*	*	*	*xywh-#31:5779,2156,4294,849	*
!	!	!	!	!	!	!LO:TX:t=P:problem=kreska pseudotaktowa	!	!	!LO:LB:g=original	!
.	.	.	.	.	.	2B-/	mi-	.	2.G/	tol-
=21-	=21-	=21-	=21-	=21-	=21-	=21-	=21-	=21-	=21-	=21-
*	*	*	*	*xywh-#418:5856,1284,4326,905	*	*	*	*	*	*
!	!	!	!	!LO:TX:t=P:problem=kreska pseudotaktowa	!	!	!	!	!	!
!	!	!	!	!LO:LB:g=original	!	!	!	!	!	!
0ryy	.	1C	-re	1G	-di	2G/	-ſe-	0ryy	.	.
*	*	*	*	*	*Xij	*	*	*	*	*
.	.	.	.	.	.	.	.	.	4F/	.
*	*	*	*	*	*	*custos:d	*	*	*	*
.	.	.	.	.	.	1c	-re-	.	4E/	.
!	!	!	!	!	!	!	!	!	!LO:TX:t=P:problem=kreska pseudotaktowa	!
.	.	.	.	.	.	.	.	.	4D/	.
.	.	2AA/	.	2r	.	.	.	.	2C/	-lis
*	*	*	*	*	*	*xywh-#222:1222,1272,4230,906	*	*	*	*
!	!	!	!	!	!	!LO:TX:t=P::problem=kreska pseudotaktowa&colon;między nutą a kropką	!	!	!	!
!	!	!	!	!	!	!LO:LB:g=original	!	!	!	!
.	.	2BB-/	.	2D/	mi-	2.d\	-re	.	2F/	pec-
=22-	=22-	=22-	=22-	=22-	=22-	=22-	=22-	=22-	=22-	=22-
!	!	!	!	!	!	!	!	!	!LO:TX:t=P:problem=kreska pseudotaktowa	!
0ryy	.	1GG	no-	1E	-ſe-	.	.	0ryy	1G	.
.	.	.	.	.	.	4c\	.	.	.	.
.	.	.	.	.	.	1B-	no-	.	.	.
!	!	!LO:TX:t=P:problem=kreska pseudotaktowa	!	!LO:TX:t=P:problem=kreska pseudotaktowa	!	!	!	!	!	!
.	.	1FF	-bis,	1F	-re-	.	.	.	2C/	.
!	!	!	!	!	!	!LO:TX:t=P:problem=kreska pseudotaktowa	!	!	!	!
.	.	.	.	.	.	2A/	-bis	.	2c\	-ca-
=23-	=23-	=23-	=23-	=23-	=23-	=23-	=23-	=23-	=23-	=23-
0ryy	.	0r	.	1G	-re	1B-	.	0ryy	2B-\	-ta
.	.	.	.	.	.	.	.	.	2.d\	mun-
.	.	.	.	2E/	no-	2G/	.	.	.	.
.	.	.	.	.	.	.	.	.	4c\	.
!	!	!	!	!LO:TX:t=P:problem=kreska pseudotaktowa	!	!	!	!	!	!
.	.	.	.	2F/	-bis;	1A\	.	.	1c\	.
=24-	=24-	=24-	=24-	=24-	=24-	=24-	=24-	=24-	=24-	=24-
0ryy	.	2r	.	1D	.	.	.	0ryy	.	.
*	*	*	*ij	*	*	*	*	*	*	*
!	!	!	!	!	!	!	!	!	!LO:TX:t=P:problem=kreska pseudotaktowa	!
.	.	2.F\	mi-	.	.	4G/	.	.	2B-\	.
!	!	!	!	!	!	!LO:TX:t=P:problem=kreska pseudotaktowa	!	!	!	!
.	.	.	.	.	.	4F/	.	.	.	.
!	!	!	!	!LO:TX:t=P:problem=kreska pseudotaktowa	!	!	!	!	!LO:TX:t=P:problem=kreska pseudotaktowa	!
.	.	.	.	1C	.	1G	.	.	1c	-di
*	*	*	*	*	*	*	*	*	*	*Xij
.	.	4D/	-ſe-	.	.	.	.	.	.	.
!	!	!LO:TX:t=P:problem=kreska pseudotaktowa	!	!	!	!	!	!	!	!
.	.	2E\	-re-	.	.	.	.	.	.	.
=25-	=25-	=25-	=25-	=25-	=25-	=25-	=25-	=25-	=25-	=25-
!	!	!	!	!	!	!LO:TX:t=P:problem=kreska pseudotaktowa	!	!	!	!
0ryy	.	2F\	-re	0r	.	1F	.	0ryy	2r	.
*	*	*custos:C	*	*	*	*	*	*	*	*
!	!	!LO:TX:t=P:problem=kreska pseudotaktowa	!	!	!	!	!	!	!	!
.	.	2D/	.	.	.	.	.	.	2F/	mi-
*	*	*xywh-#590:1009,2724,4333,1014	*	*	*	*	*	*	*	*
!	!	!LO:LB:g=original	!	!	!	!	!	!	!	!
.	.	1C	no-	.	.	2r	.	.	2G/	-ſe-
!	!	!	!	!	!	!	!	!	!LO:TX:t=P:problem=kreska pseudotaktowa	!
.	.	.	.	.	.	2c\	mi-	.	2A/	-re-
=26-	=26-	=26-	=26-	=26-	=26-	=26-	=26-	=26-	=26-	=26-
*	*	*	*	*	*	*	*	*	*custos:G	*
0ryy	.	2BB-/	.	2r	.	2d\	-ſe-	0ryy	2B-\	-re
*	*	*	*	*	*ij	*	*	*	*	*
*	*	*	*	*	*	*	*	*	*xywh-#31:5785,2781,4231,1132	*
!	!	!LO:TX:t=P:problem=kreska pseudotaktowa	!	!LO:TX:t=P:problem=kreska pseudotaktowa	!	!LO:TX:t=P:problem=kreska pseudotaktowa	!	!	!LO:LB:g=original	!
.	.	2C/	.	2.c\	mi-	2c\	-re-	.	2.G/	no-
.	.	1GG	.	.	.	1d	-re	.	.	.
.	.	.	.	4A/	-ſe-	.	.	.	4F/	-bis;
!	!	!	!	!LO:TX:t=P:problem=kreska pseudotaktowa	!	!	!	!	!LO:TX:t=P:problem=kreska pseudotaktowa	!
.	.	.	.	2B-\	-re-	.	.	.	2G/	.
=27-	=27-	=27-	=27-	=27-	=27-	=27-	=27-	=27-	=27-	=27-
0ryy	.	2AA/	.	2c\	-re	1c	no-	0ryy	4E/	.
.	.	.	.	.	.	.	.	.	4C/	.
.	.	2FF/	.	2A/	.	.	.	.	1F	.
*	*	*	*	*	*	*custos:B-	*	*	*	*
!	!	!	!	!LO:TX:t=P:problem=kreska pseudotaktowa	!	!	!	!	!	!
.	.	1C	.	1G	no-	0.c	-bis;	.	.	.
.	.	.	.	.	.	.	.	.	2E/	.
=28-	=28-	=28-	=28-	=28-	=28-	=28-	=28-	=28-	=28-	=28-
*	*	*	*	*custos:F	*	*	*	*	*	*
!	!	!LO:TX:b:t=Canon in\neadem	!	!	!	!	!	!	!LO:TX:b:t=Canon\nin eodem&colon;	!
0ryy	.	0FF	-bis	0F	-bis	.	.	0ryy	0F	.
*	*	*	*Xij	*	*Xij	*	*	*	*	*
=29||-	=29||-	=29||-	=29||-	=29||-	=29||-	=29||-	=29||-	=29||-	=29||-	=29||-
*	*	*	*	*xywh-#418:5779,2029,4314,929	*	*	*	*	*	*
*	*	*	*	*M2/1	*	*	*	*	*	*
*	*	*	*	*met(C|)	*	*	*	*	*	*
*	*	*	*	*	*	*xywh-#222:1250,2010,4320,985	*	*	*	*
!	!	!	!	!LO:TX:b:t=Cum quinq(ue)\nvocibŭs;:rj	!	!	!	!	!	!
!	!	!	!	!LO:TX:t=P:problem=kreska pseudotaktowa	!	!LO:LB:g=original	!	!	!	!
0r	.	1.F	A-	00r	.	0r	.	0ryy	00r	.
!	!	!LO:TX:t=P:problem=kreska pseudotaktowa	!	!	!	!	!	!	!	!
.	.	2F\	-gnus	.	.	.	.	.	.	.
=30-	=30-	=30-	=30-	=30-	=30-	=30-	=30-	=30-	=30-	=30-
0r	.	0G	de-	.	.	1.B-	A-	0ryy	.	.
!	!	!	!	!	!	!LO:TX:t=P:problem=kreska pseudotaktowa	!	!	!	!
.	.	.	.	.	.	2B-/	-gnus	.	.	.
=31-	=31-	=31-	=31-	=31-	=31-	=31-	=31-	=31-	=31-	=31-
0r	.	2F\	-i	0F	A-	0c	de-	0ryy	00r	.
*	*	*	*ij	*	*	*	*	*	*	*
.	.	2.FF/	A-	.	.	.	.	.	.	.
*	*	*custos:AA	*	*	*	*	*	*	*	*
.	.	4GG/	.	.	.	.	.	.	.	.
*	*	*xywh-#590:5655,580,4350,963	*	*	*	*	*	*	*	*
!	!	!LO:TX:t=P:problem=kreska pseudotaktowa	!	!	!	!	!	!	!	!
!	!	!LO:PB:g=original	!	!	!	!	!	!	!	!
.	.	2AA/	.	.	.	.	.	.	.	.
=32-	=32-	=32-	=32-	=32-	=32-	=32-	=32-	=32-	=32-	=32-
!	!	!	!	!LO:TX:t=P:problem=kreska pseudotaktowa	!	!	!	!	!	!
0r	.	2.BB-/	.	1F	-gnus	2.B-\	-i	0ryy	.	.
!	!	!	!	!	!	!LO:TX:t=P:problem=kreska pseudotaktowa	!	!	!	!
.	.	4AA/	.	.	.	4c\	.	.	.	.
.	.	1GG	.	1B-	de-	2d\	.	.	.	.
.	.	.	.	.	.	2e\	.	.	.	.
=33-	=33-	=33-	=33-	=33-	=33-	=33-	=33-	=33-	=33-	=33-
!	!	!LO:TX:t=P:problem=kreska pseudotaktowa	!	!LO:TX:a:t=Cum ſex\nvocibus	!	!	!	!	!LO:TX:t=P:problem=kreska pseudotaktowa	!
0r	.	1FF	-gnus	0A	-i;	2.f\	.	0ryy	00r	.
.	.	.	.	.	.	8e\L	.	.	.	.
!	!	!	!	!	!	!LO:TX:t=P:problem=kreska pseudotaktowa	!	!	!	!
.	.	.	.	.	.	8d\J	.	.	.	.
.	.	2.F\	de-	.	.	1c	.	.	.	.
.	.	4E\	.	.	.	.	.	.	.	.
=34-	=34-	=34-	=34-	=34-	=34-	=34-	=34-	=34-	=34-	=34-
!	!	!	!	!LO:TX:t=P:problem=drugie Agnus w tenorze zapisane znakiem powtórki	!	!	!	!	!	!
!LO:TX:t=P:problem=drugie Agnus w Bassus zapisane adnotacją o kanonie i signum congruentiae	!	!LO:TX:t=P:problem=signum congruetniae	!	!	!	!	!	!	!	!
1.F	A-	2D/	.	00r	.	2.f\	qui	0ryy	.	.
!	!	!LO:TX:t=P:problem=kreska pseudotaktowa	!	!	!	!	!	!	!	!
!	!	!LO:TX:t=P:problem=poprawka wartosci rytmicznej	!	!	!	!	!	!	!	!
.	.	2C/	.	.	.	.	.	.	.	.
!	!	!	!	!	!	!LO:TX:t=P:problem=kreska pseudotaktowa	!	!	!	!
.	.	.	.	.	.	4e\	.	.	.	.
.	.	2BB-/	.	.	.	2d\	.	.	.	.
*2\right	*	*	*	*	*	*	*	*	*	*
!LO:TX:t=P:problem=kreska pseudotaktowa	!	!	!	!	!	!	!	!	!	!
2F\	-gnus	2AA/	.	.	.	2c\	.	.	.	.
=35-	=35-	=35-	=35-	=35-	=35-	=35-	=35-	=35-	=35-	=35-
!	!	!LO:TX:t=P:problem=kreska pseudotaktowa	!	!	!	!	!	!	!	!
0G	de-	0GG	-i	.	.	2.B-/	tol-	0ryy	1.B-	A-
*	*	*	*Xij	*	*	*	*	*	*	*
!	!	!	!	!	!	!LO:TX:t=P:problem=kreska pseudotaktowa	!	!	!	!
.	.	.	.	.	.	4A/	.	.	.	.
*	*	*	*	*	*	*custos:A	*	*	*	*
!	!	!	!	!	!	!LO:TX:t=P:problem=kreska pseudotaktowa	!	!	!	!
.	.	.	.	.	.	1G	.	.	.	.
!	!	!	!	!	!	!	!	!	!LO:TX:t=P:problem=kreska pseudotaktowa	!
.	.	.	.	.	.	.	.	.	2B-\	-gnus
=36-	=36-	=36-	=36-	=36-	=36-	=36-	=36-	=36-	=36-	=36-
*	*	*	*	*	*	*xywh-#222:1272,2765,4241,1075	*	*	*	*
!	!	!	!	!	!	!LO:LB:g=original	!	!	!LO:TX:t=P:problem=kreska pseudotaktowa	!
2F\	-i	1r	.	0F	A-	2.A/	.	0ryy	0c	de-
*	*ij	*	*	*	*	*	*	*	*	*
2.FF/	A-	.	.	.	.	.	.	.	.	.
!	!	!	!	!	!	!LO:TX:t=P:problem=kreska pseudotaktowa	!	!	!	!
.	.	.	.	.	.	4G/	.	.	.	.
.	.	0r	.	.	.	2F/	.	.	.	.
*custos:AA	*	*	*	*	*	*	*	*	*	*
4GG/	.	.	.	.	.	.	.	.	.	.
!LO:TX:t=P:problem=kreska pseudotaktowa	!	!	!	!	!	!	!	!	!	!
2AA/	.	.	.	.	.	2E/	-lis	.	.	.
=37-	=37-	=37-	=37-	=37-	=37-	=37-	=37-	=37-	=37-	=37-
!	!	!	!	!	!	!LO:TX:t=P:problem=kreska pseudotaktowa	!	!	!	!
2.BB-/	.	.	.	1F	-gnus	1D	.	0ryy	2.B-\	-i
!	!	!	!	!	!	!	!	!	!LO:TX:t=P:problem=kreska pseudotaktowa	!
4AA/	.	.	.	.	.	.	.	.	4c\	.
*	*	*	*	*	*	*	*	*	*custos:e	*
1GG	.	2r	.	1B-	de-	2r	.	.	2d\	.
!	!	!LO:TX:t=P:problem=kreska pseudotaktowa	!	!	!	!LO:TX:t=P:problem=kreska pseudotaktowa	!	!	!LO:TX:t=P:problem=kreska pseudotaktowa	!
.	.	2GG/	qui	.	.	2G/	pec-	.	2e\	.
=38-	=38-	=38-	=38-	=38-	=38-	=38-	=38-	=38-	=38-	=38-
*	*	*	*	*	*	*	*	*	*xywh-#32:1231,652,4202,868	*
!LO:TX:t=P:problem=kreska pseudotaktowa	!	!	!	!	!	!	!	!	!LO:PB:g=original	!
1FF	-gnus	1AA	tol-	0A	-i;	2C/	.	0ryy	2.f\	.
.	.	.	.	.	.	2.c\	-ca-	.	.	.
.	.	.	.	.	.	.	.	.	8e\L	.
.	.	.	.	.	.	.	.	.	8d\J	.
!	!	!	!	!	!	!	!	!	!LO:TX:t=P:problem=kreska pseudotaktowa	!
2.F\	de-	0FF	-lis	.	.	.	.	.	1c	.
.	.	.	.	.	.	4B-\	-ta	.	.	.
.	.	.	.	.	.	4A/	mun-	.	.	.
!	!	!	!	!	!	!LO:TX:t=P:problem=kreska pseudotaktowa	!	!	!	!
4E\	.	.	.	.	.	4G/	.	.	.	.
=39-	=39-	=39-	=39-	=39-	=39-	=39-	=39-	=39-	=39-	=39-
!LO:TX:t=P:problem=signum congruetniae	!	!	!	!	!	!	!	!	!	!
2D/	.	.	.	00r	.	1A	-di	0ryy	2.f\	.
!LO:TX:t=P:problem=kreska pseudotaktowa	!	!	!	!	!	!	!	!	!	!
!LO:TX:t=P:problem=poprawka wartosci rytmicznej	!	!	!	!	!	!	!	!	!	!
2C/	.	.	.	.	.	.	.	.	.	.
.	.	.	.	.	.	.	.	.	4e\	.
2BB-/	.	2r	.	.	.	2r	.	.	2d\	.
*	*	*	*	*	*	*	*ij	*	*	*
*	*	*custos:G	*	*	*	*	*	*	*	*
!	!	!LO:TX:t=P:problem=kreska pseudotaktowa	!	!	!	!LO:TX:t=P:problem=kreska pseudotaktowa	!	!	!LO:TX:t=P:problem=kreska pseudotaktowa	!
2AA/	.	2F\	pec-	.	.	2A/	mun-	.	2c\	.
=40-	=40-	=40-	=40-	=40-	=40-	=40-	=40-	=40-	=40-	=40-
*	*	*xywh-#590:5639,1396,4299,906	*	*	*	*	*	*	*	*
!LO:TX:t=P:problem=kreska pseudotaktowa	!	!LO:LB:g=original	!	!	!	!	!	!	!LO:TX:t=P:problem=signum congruetniae - raczej w złym miejscu	!
0GG	-i	2G\	-ca-	.	.	0d	.	0ryy	2.B-\	.
*	*Xij	*	*	*	*	*	*	*	*	*
.	.	4F\	-ta	.	.	.	.	.	.	.
!	!	!LO:TX:t=P:problem=kreska pseudotaktowa	!	!	!	!	!	!	!	!
.	.	4E\	.	.	.	.	.	.	4A/	.
!	!	!	!	!	!	!	!	!	!LO:TX:t=P:problem=kreska pseudotaktowa	!
.	.	2D/	.	.	.	.	.	.	1G	.
.	.	2E\	.	.	.	.	.	.	.	.
=41-	=41-	=41-	=41-	=41-	=41-	=41-	=41-	=41-	=41-	=41-
!	!	!	!	!	!	!LO:TX:t=P:problem=kreska pseudotaktowa	!	!	!	!
1r	.	2.F\	.	0F	A-	1c	-di	0ryy	2.A/	.
!	!	!LO:TX:t=P:problem=kreska pseudotaktowa	!	!	!	!	!	!	!	!
.	.	4E\	mun-	.	.	.	.	.	4G/	.
0r	.	2D/	-di;	.	.	2r	.	.	2F/	.
.	.	2C/	.	.	.	2A/	pec-	.	2E/	.
=42-	=42-	=42-	=42-	=42-	=42-	=42-	=42-	=42-	=42-	=42-
!	!	!	!	!	!	!	!	!	!LO:TX:t=P:problem=kreska pseudotaktowa	!
.	.	2BB-/	.	1F	-gnus	2B-/	-ca-	0ryy	1D	.
*	*	*	*	*	*	*custos:d	*	*	*	*
!	!	!LO:TX:t=P:problem=kreska pseudotaktowa	!	!	!	!LO:TX:t=P:problem=kreska pseudotaktowa	!	!	!	!
.	.	2AA/	.	.	.	2c\	-ta	.	.	.
*	*	*	*	*	*	*xywh-#222:5790,619,4354,884	*	*	*	*
!	!	!	!	!	!	!LO:PB:g=original	!	!	!	!
2r	.	1GG	.	1B-	de-	2d\	mun-	.	2r	.
*	*	*	*	*	*	*	*	*	*	*ij
!LO:TX:t=P:problem=kreska pseudotaktowa	!	!	!	!	!	!	!	!	!	!
2GG/	qui	.	.	.	.	2B-\	.	.	2G/	A-
=43-	=43-	=43-	=43-	=43-	=43-	=43-	=43-	=43-	=43-	=43-
*	*	*	*	*	*	*	*	*	*custos:c	*
!	!	!LO:TX:t=P:problem=kreska pseudotaktowa	!	!	!	!LO:TX:t=P:problem=kreska pseudotaktowa	!	!	!	!
1AA	tol-	1FF	.	0A	-i;	0c	-di	0ryy	2C/	-gnus
*	*	*	*	*	*	*	*Xij	*	*	*
*	*	*	*	*	*	*	*	*	*xywh-#32:1230,1401,4230,823	*
!	!	!	!	!	!	!	!	!	!LO:TX:t=P:problem=kreska pseudotaktowa	!
!	!	!	!	!	!	!	!	!	!LO:LB:g=original	!
.	.	.	.	.	.	.	.	.	2.c\	de-
0FF	-lis	2r	.	.	.	.	.	.	.	.
.	.	.	.	.	.	.	.	.	4B-\	.
.	.	2C/	mi-	.	.	.	.	.	4A/	.
.	.	.	.	.	.	.	.	.	4G/	.
=44-	=44-	=44-	=44-	=44-	=44-	=44-	=44-	=44-	=44-	=44-
!	!	!	!	!	!	!	!	!	!LO:TX:t=P:problem=kreska pseudotaktowa	!
.	.	2AA/	-ſe-	00r	.	2r	.	0ryy	1A	-i
!	!	!LO:TX:t=P:problem=kreska pseudotaktowa	!	!	!	!	!	!	!	!
.	.	2FF/	-re-	.	.	2c\	mi-	.	.	.
2r	.	1AA	-re	.	.	2A/	-ſe-	.	2r	.
*custos:G	*	*	*	*	*	*	*	*	*	*
!LO:TX:t=P:problem=kreska pseudotaktowa	!	!	!	!	!	!LO:TX:t=P:problem=kreska pseudotaktowa	!	!	!	!
2F\	pec-	.	.	.	.	2F/	-re-	.	2A/	A-
=45-	=45-	=45-	=45-	=45-	=45-	=45-	=45-	=45-	=45-	=45-
2G\	-ca-	2.GG/	no-	.	.	2B-/	-re	0ryy	0d	.
4F\	-ta	.	.	.	.	2A/	.	.	.	.
*	*	*custos:BB-	*	*	*	*	*	*	*	*
!LO:TX:t=P:problem=kreska pseudotaktowa	!	!LO:TX:t=P:problem=kreska pseudotaktowa	!	!	!	!	!	!	!	!
4E\	.	4AA/	.	.	.	.	.	.	.	.
*	*	*xywh-#590:5611,2137,4322,872	*	*	*	*	*	*	*	*
!	!	!LO:LB:g=original	!	!	!	!	!	!	!	!
2D/	.	1BB-	.	.	.	2F/	.	.	.	.
!	!	!	!	!	!	!LO:TX:t=P:problem=kreska pseudotaktowa	!	!	!	!
2E\	.	.	.	.	.	2G/	.	.	.	.
=46-	=46-	=46-	=46-	=46-	=46-	=46-	=46-	=46-	=46-	=46-
!	!	!LO:TX:t=P:problem=kreska pseudotaktowa	!	!	!	!	!	!	!LO:TX:t=P:problem=kreska pseudotaktowa	!
2.F\	.	0FF	-bis	0F	A-	2.A/	no-	0ryy	1c	-gnus
!LO:TX:t=P:problem=kreska pseudotaktowa	!	!	!	!	!	!LO:TX:t=P:problem=kreska pseudotaktowa	!	!	!	!
4E\	mun-	.	.	.	.	4G/	.	.	.	.
2D/	-di;	.	.	.	.	2F/	.	.	2r	.
!	!	!	!	!	!	!LO:TX:t=P:problem=kreska pseudotaktowa	!	!	!	!
2C/	.	.	.	.	.	2E/	.	.	2A/	A-
=47-	=47-	=47-	=47-	=47-	=47-	=47-	=47-	=47-	=47-	=47-
2BB-/	.	0r	.	1F	-gnus	4D/	.	0ryy	2B-/	.
.	.	.	.	.	.	4C/	.	.	.	.
!LO:TX:t=P:problem=kreska pseudotaktowa	!	!	!	!	!	!	!	!	!LO:TX:t=P:problem=kreska pseudotaktowa	!
2AA/	.	.	.	.	.	1F	.	.	2c\	-gnus
1GG	.	.	.	1B-	de-	.	.	.	2d\	de-
*	*	*	*	*	*	*custos:F	*	*	*	*
!	!	!	!	!	!	!LO:TX:t=P:problem=kreska pseudotaktowa	!	!	!	!
.	.	.	.	.	.	2E/	.	.	2B-\	.
=48-	=48-	=48-	=48-	=48-	=48-	=48-	=48-	=48-	=48-	=48-
*	*	*	*	*	*	*xywh-#222:5796,1306,4337,968	*	*	*	*
!LO:TX:t=P:problem=kreska pseudotaktowa	!	!	!	!	!	!LO:TX:t=P:problem=kreska pseudotaktowa	!	!	!LO:TX:t=P:problem=kreska pseudotaktowa	!
!	!	!	!	!	!	!LO:LB:g=original	!	!	!	!
1FF	.	2r	.	0A	-i;	0F	-bis	0ryy	0c	-i
*	*	*	*ij	*	*	*	*	*	*	*
!	!	!LO:TX:t=P:problem=kreska pseudotaktowa	!	!	!	!	!	!	!	!
.	.	2C/	mi-	.	.	.	.	.	.	.
2r	.	2AA/	-ſe-	.	.	.	.	.	.	.
2C/	mi-	2FF/	.	.	.	.	.	.	.	.
=49-	=49-	=49-	=49-	=49-	=49-	=49-	=49-	=49-	=49-	=49-
2AA/	-ſe-	1F	-re-	00r	.	0r	.	0ryy	2r	.
!LO:TX:t=P:problem=kreska pseudotaktowa	!	!	!	!	!	!	!	!	!	!
2FF/	-re-	.	.	.	.	.	.	.	2c\	A-
1AA	-re	2E\	-re	.	.	.	.	.	2A/	.
!	!	!LO:TX:t=P:problem=kreska pseudotaktowa	!	!	!	!	!	!	!LO:TX:t=P:problem=kreska pseudotaktowa	!
.	.	2F\	no-	.	.	.	.	.	2F/	-gnus
=50-	=50-	=50-	=50-	=50-	=50-	=50-	=50-	=50-	=50-	=50-
*	*	*	*	*	*	*	*	*	*custos:A	*
!	!	!	!	!	!	!LO:TX:t=P:problem=kreska pseudotaktowa	!	!	!	!
2.GG/	no-	2G\	-bis	.	.	1r	.	0ryy	2B-/	de-
*	*	*	*	*	*	*	*	*	*xywh-#32:1281,2105,4230,902	*
!	!	!LO:TX:t=P:problem=kreska pseudotaktowa	!	!	!	!	!	!	!LO:LB:g=original	!
.	.	2C/	mi-	.	.	.	.	.	2A/	.
*custos:BB-	*	*	*	*	*	*	*	*	*	*
!LO:TX:t=P:problem=kreska pseudotaktowa	!	!	!	!	!	!	!	!	!	!
4AA/	.	.	.	.	.	.	.	.	.	.
1BB-	.	2D/	-ſe-	.	.	2r	.	.	2F/	.
!	!	!	!	!	!	!	!	!	!LO:TX:t=P:problem=kreska pseudotaktowa	!
.	.	2E\	.	.	.	2B-\	mi-	.	2G/	.
=51-	=51-	=51-	=51-	=51-	=51-	=51-	=51-	=51-	=51-	=51-
!LO:TX:t=P:problem=kreska pseudotaktowa	!	!	!	!	!	!	!	!	!	!
0FF	-bis	2.F\	-re-	0F	A-	2A/	-ſe-	0ryy	2.A/	.
!	!	!	!	!	!	!LO:TX:t=P:problem=kreska pseudotaktowa	!	!	!	!
.	.	.	.	.	.	2F/	-re-	.	.	.
!	!	!LO:TX:t=P:problem=kreska pseudotaktowa	!	!	!	!	!	!	!	!
.	.	4E\	-re	.	.	.	.	.	4G/	.
.	.	2D/	no-	.	.	2B-\	-re	.	2F/	.
!	!	!	!	!	!	!	!	!	!LO:TX:t=P:problem=kreska pseudotaktowa	!
.	.	2C/	.	.	.	2c\	no-	.	2E/	.
=52-	=52-	=52-	=52-	=52-	=52-	=52-	=52-	=52-	=52-	=52-
!	!	!	!	!	!	!LO:TX:t=P:problem=kreska pseudotaktowa	!	!	!	!
0r	.	2BB-/	.	1F	-gnus	1d	-bis	0ryy	4D/	.
.	.	.	.	.	.	.	.	.	4C/	.
!	!	!LO:TX:t=P:problem=kreska pseudotaktowa	!	!	!	!	!	!	!	!
.	.	2AA/	.	.	.	.	.	.	1F	.
*	*	*custos:FF	*	*	*	*	*	*	*	*
.	.	1GG	.	1B-	de-	2r	.	.	.	.
*	*	*	*	*	*	*	*ij	*	*	*
.	.	.	.	.	.	2G/	qui	.	2E/	.
=53-	=53-	=53-	=53-	=53-	=53-	=53-	=53-	=53-	=53-	=53-
*	*	*xywh-#590:5616,2810,4208,980	*	*	*	*	*	*	*	*
!	!	!LO:TX:t=P:problem=kreska pseudotaktowa	!	!	!	!	!	!	!	!
!	!	!LO:TX:t=P:problem=signum congruetniae	!	!	!	!	!	!	!LO:TX:t=P:problem=kreska pseudotaktowa	!
!	!	!LO:LB:g=original	!	!	!	!	!	!	!	!
2r	.	0FF	-bis	0A	-i;	1.c	tol-	0ryy	0F	-i
*	*ij	*	*Xij	*	*	*	*	*	*	*Xij
!LO:TX:t=P:problem=kreska pseudotaktowa	!	!	!	!	!	!	!	!	!	!
2C/	mi-	.	.	.	.	.	.	.	.	.
2AA/	-ſe-	.	.	.	.	.	.	.	.	.
!	!	!	!	!	!	!LO:TX:t=P:problem=kreska pseudotaktowa	!	!	!	!
2FF/	.	.	.	.	.	2c\	-lis	.	.	.
=54-	=54-	=54-	=54-	=54-	=54-	=54-	=54-	=54-	=54-	=54-
1F	-re-	2r	.	00r	.	2A/	pec-	0ryy	0r	.
!	!	!	!	!	!	!LO:TX:t=P:problem=kreska pseudotaktowa	!	!	!	!
.	.	2FF/	mi-	.	.	2F/	.	.	.	.
2E\	-re	2C/	-ſe-	.	.	2G/	-ca-	.	.	.
!LO:TX:t=P:problem=kreska pseudotaktowa	!	!LO:TX:t=P:problem=kreska pseudotaktowa	!	!	!	!LO:TX:t=P:problem=kreska pseudotaktowa	!	!	!	!
2F\	no-	2AA/	-re-	.	.	2A/	-ta	.	.	.
=55-	=55-	=55-	=55-	=55-	=55-	=55-	=55-	=55-	=55-	=55-
2G\	-bis	2GG/	-re	.	.	2B-\	mun-	0ryy	1r	.
!LO:TX:t=P:problem=kreska pseudotaktowa	!	!	!	!	!	!LO:TX:t=P:problem=kreska pseudotaktowa	!	!	!	!
2C/	mi-	2AA/	no-	.	.	2c\	.	.	.	.
*	*	*	*	*	*	*custos:G	*	*	*	*
2D/	-ſe-	2BB-/	-bis	.	.	2F/	.	.	2r	.
*	*	*	*	*	*	*xywh-#222:5807,2066,4269,1042	*	*	*	*
!	!	!LO:TX:t=P:problem=kreska pseudotaktowa	!	!	!	!LO:TX:t=P:problem=kreska pseudotaktowa	!	!	!LO:TX:t=P:problem=kreska pseudotaktowa	!
!	!	!	!	!	!	!LO:LB:g=original	!	!	!	!
2E\	.	2AA/	.	.	.	2G/	-di	.	2B-\	mi-
=56-	=56-	=56-	=56-	=56-	=56-	=56-	=56-	=56-	=56-	=56-
2.F\	-re-	2D/	.	0F	A-	2.D/	mi-	0ryy	2A/	-ſe-
.	.	1F	/mi-	.	.	.	.	.	2F/	-re-
!LO:TX:t=P:problem=kreska pseudotaktowa	!	!	!	!	!	!	!	!	!	!
4E\	-re	.	.	.	.	4E/	-ſe-	.	.	.
2D/	no-	.	.	.	.	2F/	-re-	.	2B-\	-re
!	!	!LO:TX:t=P:problem=kreska pseudotaktowa	!	!	!	!LO:TX:t=P::problem=kreska pseudotaktowa&colon;między nutą a kropką	!	!	!	!
2C/	.	2E\	-ſe-	.	.	2.G/	-re	.	2c\	no-
=57-	=57-	=57-	=57-	=57-	=57-	=57-	=57-	=57-	=57-	=57-
!	!	!	!	!	!	!	!	!	!LO:TX:t=P:problem=kreska pseudotaktowa	!
2BB-/	.	2D/	-re-	1F	-gnus	.	.	0ryy	1d	-bis;
.	.	.	.	.	.	4F/	.	.	.	.
!LO:TX:t=P:problem=kreska pseudotaktowa	!	!	!	!	!	!	!	!	!	!
2AA/	.	1C	-re	.	.	1F	no-	.	.	.
*custos:FF	*	*	*	*	*	*	*	*	*	*
1GG	.	.	.	1B-	de-	.	.	.	2r	.
.	.	2BB-/	no-	.	.	2E/	.	.	2G/	no-
=58-	=58-	=58-	=58-	=58-	=58-	=58-	=58-	=58-	=58-	=58-
*	*	*custos:FF	*	*custos:F	*	*	*	*	*custos:F	*
!LO:TX:t=P:problem=kreska pseudotaktowa	!	!	!	!	!	!	!	!	!	!
!LO:TX:t=P:problem=signum congruetniae	!	!	!	!	!	!	!	!	!	!
0FF	-bis	0C	-bis/	0A	-i;	0F	-bis	0ryy	0c	-bis
*	*Xij	*	*	*	*	*	*Xij	*	*	*
=59||-	=59||-	=59||-	=59||-	=59||-	=59||-	=59||-	=59||-	=59||-	=59||-	=59||-
*	*	*xywh-#591:1058,576,4349,914	*	*xywh-#418:5832,2702,4385,1144	*	*	*	*	*	*
*	*	*	*	*	*	*	*	*	*xywh-#32:1225,2872,4321,1408	*
!	!	!LO:PB:g=original	!	!	!	!LO:TX:t=P:problem=kreska pseudotaktowa	!	!	!LO:TX:t=P:problem=w trzecim Agnus brak głosów CII i BII, jest tylko adnotacja "cum sex vocibus". Mam je spisane z weneckiego druku H. Scotta, z którego te msze zostały przepisane. Ale jako że opieramy się tu na rękopisie, to nie daję ich tu. Jeśli będą potrzebne - proszę dawać znać, są wpisane i do wykorzystania w każdej chwili.M.S.	!
!	!	!	!	!	!	!	!	!	!LO:LB:g=original	!
!	!	!	!	!	!	!	!	!	!LO:TX:t=P:problem=kreska pseudotaktowa	!
0ryy	.	2.FF/	A-	0F	A-	1F	A-	0ryy	00r	.
!	!	!LO:TX:t=P:problem=kreska pseudotaktowa	!	!	!	!	!	!	!	!
.	.	4GG/	-gnus	.	.	.	.	.	.	.
.	.	2AA/	.	.	.	2C/	-gnus	.	.	.
.	.	1BB-/	de-	.	.	2.D/	de-	.	.	.
=60-	=60-	=60-	=60-	=60-	=60-	=60-	=60-	=60-	=60-	=60-
!	!	!	!	!LO:TX:t=P:problem=kreska pseudotaktowa	!	!	!	!	!	!
0ryy	.	.	.	1F	-gnus	.	.	0ryy	.	.
.	.	.	.	.	.	4E/	-i	.	.	.
!	!	!LO:TX:t=P:problem=kreska pseudotaktowa	!	!	!	!	!	!	!	!
.	.	2AA/	-i	.	.	1F	.	.	.	.
*	*	*	*ij	*	*	*	*	*	*	*
.	.	1GG	A-	1B-	de-	.	.	.	.	.
*	*	*	*	*	*	*custos:F	*	*	*	*
!	!	!	!	!	!	!LO:TX:t=P:problem=kreska pseudotaktowa	!	!	!	!
.	.	.	.	.	.	2E/	.	.	.	.
=61-	=61-	=61-	=61-	=61-	=61-	=61-	=61-	=61-	=61-	=61-
*	*	*	*	*	*	*xywh-#222:5790,2725,4326,1104	*	*	*	*
!	!	!	!	!LO:TX:t=P:problem=kreska pseudotaktowa	!	!LO:LB:g=original	!	!	!	!
0ryy	.	2FF/	-gnus	1A	-i;	4F/	.	0ryy	1F	A-
.	.	.	.	.	.	4G/	.	.	.	.
.	.	2.F\	de-	.	.	4A/	.	.	.	.
!	!	!	!	!	!	!LO:TX:t=P:problem=kreska pseudotaktowa	!	!	!	!
.	.	.	.	.	.	4B-\	.	.	.	.
.	.	.	.	2r	.	2c\	.	.	2C/	-gnus
.	.	4E\	.	.	.	.	.	.	.	.
*	*	*	*	*	*ij	*	*	*	*	*
!	!	!	!	!	!	!LO:TX:t=P:problem=kreska pseudotaktowa	!	!	!	!
.	.	4D/	.	2F/	A-	2F/	.	.	2.D/	de-
!	!	!LO:TX:t=P:problem=kreska pseudotaktowa	!	!	!	!	!	!	!	!
.	.	4C/	.	.	.	.	.	.	.	.
=62-	=62-	=62-	=62-	=62-	=62-	=62-	=62-	=62-	=62-	=62-
0ryy	.	2D/	.	2B-\	-gnus	0r	.	0ryy	.	.
.	.	.	.	.	.	.	.	.	4E/	-i
!	!	!	!	!LO:TX:t=P:problem=kreska pseudotaktowa	!	!	!	!	!	!
.	.	1C	.	2c\	de-	.	.	.	1F	.
.	.	.	.	1d	-i	.	.	.	.	.
!	!	!LO:TX:t=P:problem=kreska pseudotaktowa	!	!	!	!	!	!	!LO:TX:t=P:problem=kreska pseudotaktowa	!
.	.	2BB-/	.	.	.	.	.	.	2E/	.
=63-	=63-	=63-	=63-	=63-	=63-	=63-	=63-	=63-	=63-	=63-
*	*	*	*	*	*	*	*ij	*	*	*
0ryy	.	2C/	.	2r	.	0F	A-	0ryy	4F/	.
.	.	.	.	.	.	.	.	.	4G/	.
!	!	!	!	!LO:TX:t=P:problem=kreska pseudotaktowa	!	!	!	!	!	!
.	.	2FF/	.	2c\	A-	.	.	.	4A/	.
.	.	.	.	.	.	.	.	.	4B-/	.
.	.	2AA/	.	2A/	-gnus	.	.	.	2c\	.
!	!	!LO:TX:t=P:problem=kreska pseudotaktowa	!	!	!	!	!	!	!LO:TX:t=P:problem=kreska pseudotaktowa	!
.	.	2BB-/	.	2.F/	de-	.	.	.	2F/	.
=64-	=64-	=64-	=64-	=64-	=64-	=64-	=64-	=64-	=64-	=64-
!	!	!	!	!	!	!LO:TX:t=P:problem=kreska pseudotaktowa	!	!	!	!
0ryy	.	2AA/	.	.	.	1F	-gnus	0ryy	0r	.
.	.	.	.	4G/	.	.	.	.	.	.
!	!	!	!	!LO:TX:t=P:problem=kreska pseudotaktowa	!	!	!	!	!	!
.	.	2FF/	.	2A/	.	.	.	.	.	.
*	*	*custos:FF	*	*	*	*	*	*	*	*
!	!	!LO:TX:t=P:problem=kreska pseudotaktowa	!	!	!	!	!	!	!	!
.	.	1GG	.	1G	.	1B-	de-	.	.	.
=65-	=65-	=65-	=65-	=65-	=65-	=65-	=65-	=65-	=65-	=65-
*	*	*xywh-#591:1078,1329,4382,894	*	*	*	*	*	*	*	*
*	*	*	*	*	*	*	*	*	*	*ij
!	!	!LO:TX:t=P:problem=kreska pseudotaktowa	!	!LO:TX:t=P:problem=kreska pseudotaktowa	!	!	!	!	!	!
!	!	!LO:LB:g=original	!	!	!	!	!	!	!	!
0ryy	.	0FF	-i	1C	-i	2A/	-i	0ryy	0F	A-
*	*	*	*Xij	*	*	*	*Xij	*	*	*
!	!	!	!	!	!	!LO:TX:t=P:problem=kreska pseudotaktowa	!	!	!	!
.	.	.	.	.	.	2F/	qui	.	.	.
*	*	*	*	*custos:F	*	*	*	*	*	*
.	.	.	.	2r	.	1c	tol-	.	.	.
*	*	*	*	*xywh-#419:1062,539,4325,869	*	*	*	*	*	*
!	!	!	!	!LO:TX:t=P:problem=kreska pseudotaktowa	!	!	!	!	!	!
!	!	!	!	!LO:PB:g=original	!	!	!	!	!	!
.	.	.	.	2F/	A-	.	.	.	.	.
=66-	=66-	=66-	=66-	=66-	=66-	=66-	=66-	=66-	=66-	=66-
!	!	!	!	!	!	!LO:TX:t=P:problem=kreska pseudotaktowa	!	!	!LO:TX:t=P:problem=kreska pseudotaktowa	!
0ryy	.	0r	.	4D/	.	1d	-lis	0ryy	1F	-gnus
.	.	.	.	4C/	.	.	.	.	.	.
.	.	.	.	1F	.	.	.	.	.	.
.	.	.	.	.	.	2r	.	.	1B-	de-
!	!	!	!	!LO:TX:t=P:problem=kreska pseudotaktowa	!	!LO:TX:t=P:problem=kreska pseudotaktowa	!	!	!	!
.	.	.	.	2E/	-gnus	2G/	pec-	.	.	.
=67-	=67-	=67-	=67-	=67-	=67-	=67-	=67-	=67-	=67-	=67-
*	*	*	*	*	*	*	*	*	*custos:F	*
!	!	!	!	!	!	!	!	!	!LO:TX:t=P:problem=kreska pseudotaktowa	!
0ryy	.	2r	.	2.F/	de-	1.c	-ca-	0ryy	1A	-i
!	!	!LO:TX:t=P:problem=kreska pseudotaktowa	!	!	!	!	!	!	!	!
.	.	2C/	qui	.	.	.	.	.	.	.
.	.	.	.	8E/L	.	.	.	.	.	.
.	.	.	.	8D/J	.	.	.	.	.	.
.	.	1.F	.	2C/	.	.	.	.	2r	.
*	*	*	*	*	*	*	*	*	*xywh-#32:5836,601,4361,959	*
!	!	!	!	!LO:TX:t=P:problem=kreska pseudotaktowa	!	!LO:TX:t=P:problem=kreska pseudotaktowa	!	!	!LO:PB:g=original	!
.	.	.	.	2F/	-i	2B-\	-ta	.	4F/	A-
!	!	!	!	!	!	!	!	!	!LO:TX:t=P:problem=kreska pseudotaktowa	!
.	.	.	.	.	.	.	.	.	4G/	.
=68-	=68-	=68-	=68-	=68-	=68-	=68-	=68-	=68-	=68-	=68-
0ryy	.	.	.	2.c\	A-	2A/	mun-	0ryy	4A/	.
.	.	.	.	.	.	.	.	.	4B-\	.
*	*	*	*	*	*	*custos:F	*	*	*	*
!	!	!	!	!	!	!LO:TX:t=P:problem=kreska pseudotaktowa	!	!	!	!
.	.	2E\	tol-	.	.	2G/	.	.	4c\	.
!	!	!	!	!LO:TX:t=P:problem=kreska pseudotaktowa	!	!	!	!	!	!
.	.	.	.	4c\	-gnus	.	.	.	4A/	-gnus
*	*	*	*	*	*	*xywh-#223:1260,524,4247,997	*	*	*	*
!	!	!	!	!	!	!LO:PB:g=original	!	!	!	!
.	.	2D\	-lis	2B-\	de-	2F/	.	.	2B-\	de-
!	!	!LO:TX:t=P:problem=kreska pseudotaktowa	!	!LO:TX:t=P:problem=kreska pseudotaktowa	!	!LO:TX:t=P:problem=kreska pseudotaktowa	!	!	!	!
.	.	2C/	pec-	2A/	.	2E/	-di	.	2c\	.
=69-	=69-	=69-	=69-	=69-	=69-	=69-	=69-	=69-	=69-	=69-
!	!	!	!	!	!	!	!	!	!LO:TX:t=P:problem=kreska pseudotaktowa	!
0ryy	.	2BB-/	-ca-	2G/	.	2D/	.	0ryy	1d	-i
!	!	!	!	!	!	!LO:TX:t=P:problem=kreska pseudotaktowa	!	!	!	!
.	.	2AA/	-ta	1F	.	2C/	.	.	.	.
*	*	*	*	*	*	*	*ij	*	*	*
.	.	1GG	m(un)-	.	.	1G	pec-	.	2r	.
*	*	*	*	*custos:F	*	*	*	*	*	*
!	!	!	!	!LO:TX:t=P:problem=kreska pseudotaktowa	!	!	!	!	!	!
.	.	.	.	2E/	-i	.	.	.	2G/	A-
=70-	=70-	=70-	=70-	=70-	=70-	=70-	=70-	=70-	=70-	=70-
*	*	*	*	*xywh-#419:1097,1251,4347,942	*	*	*	*	*	*
!	!	!LO:TX:t=P:problem=kreska pseudotaktowa	!	!	!	!	!	!	!	!
0ryy	.	1FF	-di,	4F/	A-	2C/	.	0ryy	2c\	-gnus
.	.	.	.	4G/	.	.	.	.	.	.
.	.	.	.	4A\	.	1F	-ca-	.	2.C/	de-
!	!	!	!	!LO:TX:t=P:problem=kreska pseudotaktowa	!	!	!	!	!	!
.	.	.	.	4B-\	.	.	.	.	.	.
.	.	0r	.	2c\	.	.	.	.	.	.
.	.	.	.	.	.	.	.	.	4D/	.
!	!	!	!	!LO:TX:t=P:problem=kreska pseudotaktowa	!	!LO:TX:t=P:problem=kreska pseudotaktowa	!	!	!LO:TX:t=P:problem=kreska pseudotaktowa	!
.	.	.	.	2G/	-gnus	2E/	-ta	.	2E/	.
=71-	=71-	=71-	=71-	=71-	=71-	=71-	=71-	=71-	=71-	=71-
0ryy	.	.	.	4A/	de-	2F/	mun-	0ryy	1C	-i
.	.	.	.	4B-/	.	.	.	.	.	.
.	.	.	.	1c	.	2G/	.	.	.	.
.	.	00r	.	.	.	2A/	.	.	2r	.
!	!	!	!	!LO:TX:t=P:problem=kreska pseudotaktowa	!	!LO:TX:t=P:problem=kreska pseudotaktowa	!	!	!LO:TX:t=P:problem=kreska pseudotaktowa	!
.	.	.	.	2B-\	.	2D/	-di	.	2F/	A-
=72-	=72-	=72-	=72-	=72-	=72-	=72-	=72-	=72-	=72-	=72-
0ryy	.	.	.	2A/	.	1r	.	0ryy	2.c\	.
!	!	!	!	!LO:TX:t=P:problem=kreska pseudotaktowa	!	!	!	!	!	!
.	.	.	.	2G/	.	.	.	.	.	.
.	.	.	.	.	.	.	.	.	4c\	-gnus
.	.	.	.	2.F/	.	2r	.	.	2B-\	.
*	*	*	*	*	*	*	*	*	*custos:G	*
!	!	!	!	!	!	!	!	!	!LO:TX:t=P:problem=kreska pseudotaktowa	!
.	.	.	.	.	.	2.d\	pec-	.	2A/	de-
.	.	.	.	4E/	.	.	.	.	.	.
=73-	=73-	=73-	=73-	=73-	=73-	=73-	=73-	=73-	=73-	=73-
*	*	*	*	*	*	*	*	*	*xywh-#32:5728,1367,4378,919	*
!	!	!	!	!	!	!	!	!	!LO:LB:g=original	!
0ryy	.	.	.	2D/	.	.	.	0ryy	2G/	.
.	.	.	.	.	.	4e\	.	.	.	.
!	!	!	!	!LO:TX:t=P:problem=kreska pseudotaktowa	!	!LO:TX:t=P:problem=kreska pseudotaktowa	!	!	!	!
.	.	.	.	2C/	-i	2f\	-ca-	.	1F	.
*	*	*	*	*	*Xij	*	*	*	*	*
.	.	2r	.	2r	.	2d\	.	.	.	.
*	*	*	*ij	*	*	*	*	*	*	*
!	!	!LO:TX:t=P:problem=kreska pseudotaktowa	!	!	!	!	!	!	!	!
.	.	2C/	qui	2c\	qui	1c\	-ta	.	2E/	.
=74-	=74-	=74-	=74-	=74-	=74-	=74-	=74-	=74-	=74-	=74-
0ryy	.	2C/	tol-	2A/	tol-	.	.	0ryy	2.F/	.
.	.	2AA/	-lis	2F/	-lis	1f	mun-	.	.	.
!	!	!	!	!	!	!	!	!	!LO:TX:t=P:problem=kreska pseudotaktowa	!
.	.	.	.	.	.	.	.	.	4E/	.
*	*	*	*	*custos:F	*	*	*	*	*	*
!	!	!	!	!LO:TX:t=P:problem=kreska pseudotaktowa	!	!	!	!	!	!
.	.	2BB-/	pec-	1G	pec-	.	.	.	2D/	.
*	*	*	*	*	*	*custos:f	*	*	*	*
!	!	!LO:TX:t=P:problem=kreska pseudotaktowa	!	!	!	!LO:TX:t=P:problem=kreska pseudotaktowa	!	!	!	!
.	.	2C/	-ca-	.	.	2e\	.	.	2C/	.
=75-	=75-	=75-	=75-	=75-	=75-	=75-	=75-	=75-	=75-	=75-
*	*	*	*	*xywh-#419:1119,2007,4302,914	*	*xywh-#223:1288,1369,4224,844	*	*	*	*
!	!	!	!	!LO:LB:g=original	!	!LO:LB:g=original	!	!	!	!
0ryy	.	2FF/	-ta	2F/	-ca-	2.f\	.	0ryy	1c	-i
*	*	*	*	*	*	*	*	*	*	*Xij
!	!	!	!	!LO:TX:t=P:problem=kreska pseudotaktowa	!	!	!	!	!	!
.	.	2.F\	m(un)-	2c\	-ta	.	.	.	.	.
.	.	.	.	.	.	4e\	.	.	.	.
.	.	.	.	2B-\	mun-	2d\	.	.	2r	.
.	.	8E\L	.	.	.	.	.	.	.	.
.	.	8D\J	.	.	.	.	.	.	.	.
*	*	*custos:F	*	*	*	*	*	*	*	*
!	!	!LO:TX:t=P:problem=kreska pseudotaktowa	!	!LO:TX:t=P:problem=kreska pseudotaktowa	!	!LO:TX:t=P:problem=kreska pseudotaktowa	!	!	!LO:TX:t=P:problem=kreska pseudotaktowa	!
.	.	2E\	.	2G/	-di;	2c\	-di	.	2c\	Qui
=76-	=76-	=76-	=76-	=76-	=76-	=76-	=76-	=76-	=76-	=76-
*	*	*xywh-#591:1145,2115,4288,860	*	*	*	*	*	*	*	*
!	!	!LO:LB:g=original	!	!	!	!	!	!	!	!
0ryy	.	2.F\	.	2A/	.	1r	.	0ryy	2c\	tol-
.	.	.	.	2F/	.	.	.	.	2A/	-lis
.	.	4E\	.	.	.	.	.	.	.	.
.	.	2D/	.	1G	.	2r	.	.	2B-\	pec-
!	!	!LO:TX:t=P:problem=kreska pseudotaktowa	!	!	!	!LO:TX:t=P:problem=kreska pseudotaktowa	!	!	!LO:TX:t=P:problem=kreska pseudotaktowa	!
.	.	2C/	-di	.	.	2c\	qui	.	2c\	-ca-
=77-	=77-	=77-	=77-	=77-	=77-	=77-	=77-	=77-	=77-	=77-
!	!	!	!	!LO:TX:t=P:problem=kreska pseudotaktowa	!	!	!	!	!	!
0ryy	.	1r	.	1F	.	2c\	tol-	0ryy	2F/	-ta
.	.	.	.	.	.	2A/	-lis	.	1f	mun-
.	.	2r	.	0r	.	2B-\	pec-	.	.	.
!	!	!LO:TX:t=P:problem=kreska pseudotaktowa	!	!	!	!LO:TX:t=P:problem=kreska pseudotaktowa	!	!	!LO:TX:t=P:problem=kreska pseudotaktowa	!
.	.	2C/	pec-	.	.	2c\	-ca-	.	2e\	.
=78-	=78-	=78-	=78-	=78-	=78-	=78-	=78-	=78-	=78-	=78-
0ryy	.	2D/	-ca-	.	.	2F/	-ta	0ryy	2.f\	-di
.	.	2BB-/	-ta	.	.	1f	pec-	.	.	.
.	.	.	.	.	.	.	.	.	8e\L	.
.	.	.	.	.	.	.	.	.	8d\J	.
!	!	!	!	!	!	!	!	!	!LO:TX:t=P:problem=kreska pseudotaktowa	!
.	.	1C	m(un)-	2r	.	.	.	.	1c	.
*	*	*	*	*	*ij	*	*	*	*	*
!	!	!	!	!LO:TX:t=P:problem=kreska pseudotaktowa	!	!LO:TX:t=P:problem=kreska pseudotaktowa	!	!	!	!
.	.	.	.	2G/	qui	2e\	.	.	.	.
=79-	=79-	=79-	=79-	=79-	=79-	=79-	=79-	=79-	=79-	=79-
*	*	*	*	*	*	*	*	*	*custos:C	*
!	!	!LO:TX:t=P:problem=kreska pseudotaktowa	!	!	!	!	!	!	!	!
0ryy	.	1FF	-di	2A/	tol-	2.f\	-ca-	0ryy	2r	.
*	*	*	*	*	*	*	*	*	*	*ij
*	*	*	*	*	*	*	*	*	*xywh-#32:5807,2162,4298,897	*
!	!	!	!	!	!	!	!	!	!LO:LB:g=original	!
.	.	.	.	2F/	-lis	.	.	.	2.C/	Qui
.	.	.	.	.	.	8e\L	.	.	.	.
!	!	!	!	!	!	!LO:TX:t=P:problem=kreska pseudotaktowa	!	!	!	!
.	.	.	.	.	.	8d\J	.	.	.	.
!	!	!	!	!LO:TX:t=P:problem=kreska pseudotaktowa	!	!	!	!	!	!
.	.	0r	.	1G	pec-	2c\	.	.	.	.
.	.	.	.	.	.	.	.	.	4D/	.
!	!	!	!	!	!	!	!	!	!LO:TX:t=P:problem=kreska pseudotaktowa	!
.	.	.	.	.	.	2C/	-ta	.	2E/	.
=80-	=80-	=80-	=80-	=80-	=80-	=80-	=80-	=80-	=80-	=80-
0ryy	.	.	.	2F/	-ca-	2F/	mun-	0ryy	4D/	.
.	.	.	.	.	.	.	.	.	4C/	.
*	*	*	*	*	*	*custos:E	*	*	*	*
!	!	!	!	!	!	!LO:TX:t=P:problem=kreska pseudotaktowa	!	!	!	!
.	.	.	.	2B-\	.	2D/	.	.	1F	tol-
*	*	*	*	*	*	*xywh-#223:1276,1944,4286,1042	*	*	*	*
!	!	!	!	!LO:TX:t=P:problem=kreska pseudotaktowa	!	!LO:LB:g=original	!	!	!	!
.	.	2r	.	1G	-ta	1E	.	.	.	.
!	!	!LO:TX:t=P:problem=kreska pseudotaktowa	!	!	!	!	!	!	!	!
.	.	2C/	qui	.	.	.	.	.	2E/	.
=81-	=81-	=81-	=81-	=81-	=81-	=81-	=81-	=81-	=81-	=81-
*	*	*	*	*	*	*	*	*	*lig	*
0ryy	.	2C/	tol-	2.F/	mun-	2C/	-di	0ryy	1F	.
!	!	!	!	!	!	!LO:TX:t=P:problem=kreska pseudotaktowa	!	!	!	!
.	.	2AA/	.	.	.	2c\	pec-	.	.	.
*	*	*	*	*custos:D	*	*	*	*	*	*
.	.	.	.	4E/	.	.	.	.	.	.
*	*	*	*	*xywh-#419:1159,2843,4285,863	*	*	*	*	*	*
!	!	!	!	!LO:LB:g=original	!	!	!	!	!LO:TX:t=P:problem=kreska pseudotaktowa	!
.	.	2BB-/	-lis	2D/	.	2B-\	-ca-	.	1G	.
!	!	!LO:TX:t=P:problem=kreska pseudotaktowa	!	!	!	!	!	!	!	!
.	.	2C/	.	2C/	.	2G/	.	.	.	.
*	*	*	*	*	*	*	*	*	*Xlig	*
=82-	=82-	=82-	=82-	=82-	=82-	=82-	=82-	=82-	=82-	=82-
!	!	!	!	!LO:TX:t=P:problem=kreska pseudotaktowa	!	!	!	!	!	!
0ryy	.	2FF/	pec-	1c	-di	2A/	-ta	0ryy	2F/	-lis
!	!	!	!	!	!	!LO:TX:t=P:problem=kreska pseudotaktowa	!	!	!	!
.	.	1F	-ca-	.	.	2F/	.	.	2c\	pec-
.	.	.	.	2r	.	1G	mun-	.	2B-\	.
!	!	!LO:TX:t=P:problem=kreska pseudotaktowa	!	!	!	!	!	!	!LO:TX:t=P:problem=kreska pseudotaktowa	!
.	.	2E\	-ta	2c\	pec-	.	.	.	2G/	.
=83-	=83-	=83-	=83-	=83-	=83-	=83-	=83-	=83-	=83-	=83-
!	!	!	!	!	!	!LO:TX:t=P:problem=kreska pseudotaktowa	!	!	!	!
0ryy	.	2.F\	m(un)-	2c\	-ca-	1F	-di	0ryy	2A/	-ca-
!	!	!	!	!LO:TX:t=P:problem=kreska pseudotaktowa	!	!	!	!	!	!
.	.	.	.	2A/	-ta	.	.	.	2F/	.
*	*	*custos:D	*	*	*	*	*	*	*	*
.	.	4E\	.	.	.	.	.	.	.	.
*	*	*xywh-#591:1179,2781,4275,974	*	*	*	*	*	*	*	*
!	!	!LO:LB:g=original	!	!	!	!	!	!	!LO:TX:t=P:problem=kreska pseudotaktowa	!
.	.	2D/	.	2B-\	mun-	2r	.	.	1G	-ta
!	!	!LO:TX:t=P:problem=kreska pseudotaktowa	!	!	!	!	!	!	!	!
.	.	2C/	-di	2c\	.	2c\	pec-	.	.	.
=84-	=84-	=84-	=84-	=84-	=84-	=84-	=84-	=84-	=84-	=84-
!	!	!	!	!LO:TX:t=P:problem=kreska pseudotaktowa	!	!	!	!	!	!
0ryy	.	2r	.	1F	-di	2A/	-ca-	0ryy	2.F/	mun-
*	*	*	*	*	*Xij	*	*	*	*	*
!	!	!	!	!	!	!LO:TX:t=P:problem=kreska pseudotaktowa	!	!	!	!
.	.	1F	m(un)-	.	.	2F/	-ta	.	.	.
.	.	.	.	.	.	.	.	.	4G/	.
.	.	.	.	1r	.	1f	mun-	.	2A/	-di
*	*	*	*	*	*	*	*	*	*	*Xij
*	*	*	*	*	*	*	*	*	*custos:G	*
!	!	!	!	!	!	!	!	!	!LO:TX:t=P:problem=kreska pseudotaktowa	!
.	.	2D/	.	.	.	.	.	.	2F/	do-
=85-	=85-	=85-	=85-	=85-	=85-	=85-	=85-	=85-	=85-	=85-
*	*	*	*	*	*	*	*	*	*xywh-#32:5711,2827,4400,919	*
*M3/1	*	*M3/1	*	*M3/1	*	*M3/1	*	*M3/1	*M3/1	*
!	!	!	!	!	!	!	!	!	!LO:LB:g=original	!
1%3ryy	.	0E	-di	1%3r	.	0e	-di	1%3ryy	0G	-na
*	*	*	*Xij	*	*	*	*Xij	*	*	*
!	!	!LO:TX:t=P:problem=kreska pseudotaktowa	!	!	!	!LO:TX:t=P:problem=kreska pseudotaktowa	!	!	!LO:TX:t=P:problem=kreska pseudotaktowa	!
.	.	1r	.	.	.	1r	.	.	1r	.
=86-	=86-	=86-	=86-	=86-	=86-	=86-	=86-	=86-	=86-	=86-
1%3ryy	.	1C	do-	1F	do-	1f	do-	1%3ryy	1c	do-
.	.	1C	-na	1F	-na	1f	-na	.	1c	-na
*	*	*	*	*	*	*custos:f	*	*	*	*
!	!	!	!	!LO:TX:t=P:problem=kreska pseudotaktowa	!	!LO:TX:t=P:problem=kreska pseudotaktowa	!	!	!LO:TX:t=P:problem=kreska pseudotaktowa	!
.	.	1C	no-	1C	no-	1e	no-	.	1A	no-
*	*	*	*	*	*	*clefC3	*	*	*	*
=87-	=87-	=87-	=87-	=87-	=87-	=87-	=87-	=87-	=87-	=87-
*	*	*	*	*	*	*xywh-#223:1265,2817,4320,923	*	*	*	*
!	!	!	!	!	!	!LO:LB:g=original	!	!	!	!
1%3ryy	.	1FF	-bis	1C	-bis	1f	-bis	1%3ryy	1A	-bis
.	.	0GG	pa-	2.G/	pa-	1d	.	.	0B-	pa-
.	.	.	.	4A/	.	.	.	.	.	.
*	*	*	*	*custos:A	*	*	*	*	*	*
!	!	!	!	!LO:TX:t=P:problem=kreska pseudotaktowa	!	!LO:TX:t=P:problem=kreska pseudotaktowa	!	!	!	!
.	.	.	.	1B-	.	1e	pa-	.	.	.
=88-	=88-	=88-	=88-	=88-	=88-	=88-	=88-	=88-	=88-	=88-
*	*	*	*	*xywh-#419:5799,562,4426,965	*	*	*	*	*	*
!	!	!	!	!LO:PB:g=original	!	!	!	!	!	!
1%3ryy	.	0AA	-cem	0A	-cem;	0f	-cem	1%3ryy	0c	-cem
!	!	!LO:TX:t=P:problem=kreska pseudotaktowa	!	!LO:TX:t=P:problem=kreska pseudotaktowa	!	!LO:TX:t=P:problem=kreska pseudotaktowa	!	!	!LO:TX:t=P:problem=kreska pseudotaktowa	!
.	.	1r	.	1r	.	1r	.	.	1r	.
=89-	=89-	=89-	=89-	=89-	=89-	=89-	=89-	=89-	=89-	=89-
*	*	*	*ij	*	*ij	*	*ij	*	*	*ij
1%3ryy	.	1.FF	do-	1.A	do-	1c	do-	1%3ryy	1f	do-
.	.	.	.	.	.	1c	-na	.	1f	-na
.	.	2GG/	-na	2B-\	-na	.	.	.	.	.
!	!	!	!	!LO:TX:t=P:problem=kreska pseudotaktowa	!	!LO:TX:t=P:problem=kreska pseudotaktowa	!	!	!LO:TX:t=P:problem=kreska pseudotaktowa	!
.	.	1AA	no-	1c	no-	1A	no-	.	1e	no-
=90-	=90-	=90-	=90-	=90-	=90-	=90-	=90-	=90-	=90-	=90-
1%3ryy	.	1C	-bis	1A	-bis	1A	-bis	1%3ryy	1f	-bis
*	*	*custos:FF	*	*	*	*	*	*	*	*
.	.	0BB-	pa-	0G	pa-	0B-	pa-	.	1d	pa-
.	.	.	.	.	.	.	.	.	1e	.
=91-	=91-	=91-	=91-	=91-	=91-	=91-	=91-	=91-	=91-	=91-
*	*	*xywh-#591:5626,608,4453,901	*	*	*	*	*	*	*	*
*M2/1	*	*M2/1	*	*M2/1	*	*M2/1	*	*M2/1	*M2/1	*
*met(C|)	*	*met(C|)	*	*met(C|)	*	*met(C|)	*	*	*met(C|)	*
!	!	!LO:PB:g=original	!	!LO:TX:t=P:problem=kreska pseudotaktowa	!	!LO:TX:t=P:problem=kreska pseudotaktowa	!	!	!	!
0ryy	.	00FF/	-cem	0F	-cem	1c	-cem	0ryy	0f	-cem
*	*	*	*Xij	*	*Xij	*	*Xij	*	*	*
.	.	.	.	.	.	1r	.	.	.	.
=92-	=92-	=92-	=92-	=92-	=92-	=92-	=92-	=92-	=92-	=92-
!	!	!	!	!	!	!	!	!	!LO:TX:t=P:problem=kreska pseudotaktowa	!
0ryy	.	.	.	1r	.	1c	do-	0ryy	0r	.
!	!	!	!	!	!	!LO:TX:t=P:problem=kreska pseudotaktowa	!	!	!	!
.	.	.	.	1C	do-	1c	-na	.	.	.
=93-	=93-	=93-	=93-	=93-	=93-	=93-	=93-	=93-	=93-	=93-
*	*	*	*	*	*	*	*	*	*custos:c	*
!	!	!	!	!LO:TX:t=P:problem=kreska pseudotaktowa	!	!	!	!	!	!
0ryy	.	1r	.	1C	-na	1c	no-	0ryy	1c	do-
*	*	*	*	*	*	*	*	*	*xywh-#33:1167,616,4264,908	*
!	!	!	!	!	!	!LO:TX:t=P:problem=poprawka wysokości	!	!	!	!
!	!	!	!	!	!	!LO:TX:t=P:problem=kreska pseudotaktowa	!	!	!LO:PB:g=original	!
.	.	1FF	do-	1C	no-	1f	-bis	.	1c	-na
=94-	=94-	=94-	=94-	=94-	=94-	=94-	=94-	=94-	=94-	=94-
!	!	!LO:TX:t=P:problem=kreska pseudotaktowa	!	!LO:TX:t=P:problem=kreska pseudotaktowa	!	!	!	!	!	!
0ryy	.	1FF	-na	0F	-bis	1.f	pa-	0ryy	1c	no-
.	.	1FF	no-	.	.	.	.	.	1.f	.
*	*	*	*	*	*	*custos:d	*	*	*	*
!	!	!	!	!	!	!LO:TX:t=P:problem=kreska pseudotaktowa	!	!	!	!
.	.	.	.	.	.	2e\	.	.	.	.
*	*	*	*	*	*	*clefC4	*	*	*	*
=95-	=95-	=95-	=95-	=95-	=95-	=95-	=95-	=95-	=95-	=95-
*	*	*	*	*	*	*xywh-#223:5777,642,4376,833	*	*	*	*
!	!	!	!	!	!	!LO:TX:t=P:problem=kreska pseudotaktowa	!	!	!	!
!	!	!	!	!	!	!LO:PB:g=original	!	!	!	!
0ryy	.	1.BB-	-bis	1r	.	0.d	.	0ryy	.	.
!	!	!	!	!	!	!	!	!	!LO:TX:t=P:problem=kreska pseudotaktowa	!
.	.	.	.	.	.	.	.	.	2e\	.
!	!	!	!	!LO:TX:t=P:problem=bemol od następnej nuty zanotowany przed tą	!	!	!	!	!	!
!	!	!	!	!LO:TX:t=P:problem=kreska pseudotaktowa	!	!	!	!	!	!
.	.	.	.	0.D	pa-	.	.	.	2d\	.
!	!	!LO:TX:t=P:problem=kreska pseudotaktowa	!	!	!	!	!	!	!	!
.	.	2AA/	.	.	.	.	.	.	2c\	.
=96-	=96-	=96-	=96-	=96-	=96-	=96-	=96-	=96-	=96-	=96-
0ryy	.	2GG/	.	.	.	.	.	0ryy	2.B-/	.
.	.	2FF/	.	.	.	.	.	.	.	.
.	.	.	.	.	.	.	.	.	4A/	.
.	.	1.EE	pa-	.	.	0.B-	.	.	1.G	.
=97-	=97-	=97-	=97-	=97-	=97-	=97-	=97-	=97-	=97-	=97-
*	*	*	*	*custos:C	*	*	*	*	*	*
0ryy	.	.	.	0E-X	-cem;	.	.	0ryy	.	.
!	!	!	!	!	!	!	!	!	!LO:TX:t=P:problem=kreska pseudotaktowa	!
.	.	2FF/	.	.	.	.	.	.	2A/	.
!	!	!LO:TX:t=P:problem=kreska pseudotaktowa	!	!	!	!	!	!	!	!
.	.	1GG	-cem:	.	.	.	.	.	2B-/	.
.	.	.	.	.	.	.	.	.	2G/	.
=98-	=98-	=98-	=98-	=98-	=98-	=98-	=98-	=98-	=98-	=98-
*	*	*	*	*xywh-#419:5817,1285,2953,954	*	*	*	*	*	*
!	!	!	!	!LO:TX:t=P:problem=kreska pseudotaktowa	!	!LO:TX:t=P:problem=kreska pseudotaktowa	!	!	!	!
!	!	!	!	!LO:LB:g=original	!	!	!	!	!	!
0ryy	.	2r	.	0C	.	0A	-cem:	0ryy	1A	.
.	.	2C/	do-	.	.	.	.	.	.	.
!	!	!	!	!	!	!	!	!	!LO:TX:t=P:problem=kreska pseudotaktowa	!
.	.	1C	-na	.	.	.	.	.	1c	.
=99-	=99-	=99-	=99-	=99-	=99-	=99-	=99-	=99-	=99-	=99-
!	!	!LO:TX:t=P:problem=kreska pseudotaktowa	!	!	!	!LO:TX:t=P:problem=kreska pseudotaktowa	!	!	!	!
0ryy	.	1C	no-	1r	.	1r	.	0ryy	1c	-bis
*	*	*	*	*	*	*	*ij	*	*	*
!	!	!	!	!LO:TX:t=P:problem=kreska pseudotaktowa	!	!	!	!	!	!
.	.	1F	-bis	0r	.	1c	do-	.	1c	pa-
=100-	=100-	=100-	=100-	=100-	=100-	=100-	=100-	=100-	=100-	=100-
!	!	!	!	!	!	!LO:TX:t=P:problem=kreska pseudotaktowa	!	!	!LO:TX:t=P:problem=kreska pseudotaktowa	!
0ryy	.	1.F	pa-	.	.	1c	-na	0ryy	1f	-cem
.	.	.	.	1F	do-	1c	no-	.	1.f	do-
.	.	4E/	.	.	.	.	.	.	.	.
!	!	!LO:TX:t=P:problem=kreska pseudotaktowa	!	!	!	!	!	!	!	!
.	.	4D/	-cem	.	.	.	.	.	.	.
=101-	=101-	=101-	=101-	=101-	=101-	=101-	=101-	=101-	=101-	=101-
*	*	*custos:D	*	*	*	*	*	*	*	*
!	!	!	!	!LO:TX:t=P:problem=kreska pseudotaktowa	!	!	!	!	!	!
0ryy	.	1C	.	1F	-na	1.f	.	0ryy	.	.
.	.	.	.	.	.	.	.	.	2e\	.
*	*	*xywh-#591:5582,1370,4291,862	*	*	*	*	*	*	*	*
*	*	*	*ij	*	*	*	*	*	*	*
*	*	*	*	*	*	*	*	*	*custos:B-	*
!	!	!LO:LB:g=original	!	!	!	!	!	!	!LO:TX:t=P:problem=kreska pseudotaktowa	!
.	.	2.D/	no-	1F	no-	.	.	.	0.d	.
!	!	!	!	!	!	!LO:TX:t=P:problem=kreska pseudotaktowa	!	!	!	!
.	.	.	.	.	.	2e\	.	.	.	.
!	!	!LO:TX:t=P:problem=kreska pseudotaktowa	!	!	!	!	!	!	!	!
.	.	4GG/	-bis	.	.	.	.	.	.	.
=102-	=102-	=102-	=102-	=102-	=102-	=102-	=102-	=102-	=102-	=102-
!	!	!	!	!LO:TX:t=P:problem=kreska pseudotaktowa	!	!	!	!	!	!
0ryy	.	2BB-/	pa-	1B-	-bis	2d\	-bis	0ryy	.	.
!	!	!	!	!	!	!LO:TX:t=P:problem=kreska pseudotaktowa	!	!	!	!
.	.	2C/	.	.	.	2c\	.	.	.	.
!	!	!LO:TX:t=P:problem=kreska pseudotaktowa	!	!	!	!	!	!	!	!
.	.	1D	-cem	1.B-	pa-	2.B-/	pa-	.	.	.
!	!	!	!	!	!	!LO:TX:t=P:problem=kreska pseudotaktowa	!	!	!	!
.	.	.	.	.	.	4A/	.	.	.	.
=103-	=103-	=103-	=103-	=103-	=103-	=103-	=103-	=103-	=103-	=103-
*	*	*	*	*	*	*	*	*	*xywh-#33:1161,1388,2032,868	*
!	!	!	!	!	!	!	!	!	!LO:LB:g=original	!
0ryy	.	2r	.	.	.	2.G/	.	0ryy	0B-	-na
*	*	*	*	*	*	*	*	*	*	*Xij
.	.	2.GG/	do-	2A/	-cem,	.	.	.	.	.
!	!	!	!	!	!	!LO:TX:t=P:problem=kreska pseudotaktowa	!	!	!	!
.	.	.	.	.	.	4A/	.	.	.	.
.	.	.	.	1G	.	2B-/	.	.	.	.
.	.	4AA/	.	.	.	.	.	.	.	.
*	*	*	*	*	*	*custos:A	*	*	*	*
!	!	!LO:TX:t=P:problem=kreska pseudotaktowa	!	!	!	!LO:TX:t=P:problem=kreska pseudotaktowa	!	!	!	!
.	.	2BB-/	-na	.	.	2G/	.	.	.	.
=104-	=104-	=104-	=104-	=104-	=104-	=104-	=104-	=104-	=104-	=104-
*	*	*	*	*	*	*xywh-#223:5811,1290,2568,963	*	*	*	*
!	!	!	!	!	!	!LO:LB:g=original	!	!	!	!
0ryy	.	1AA	no-	000F/	.	2A/	.	0ryy	1.f	no-
!	!	!	!	!	!	!LO:TX:t=P:problem=kreska pseudotaktowa	!	!	!	!
.	.	.	.	.	.	2F/	-cem	.	.	.
*	*	*	*	*	*	*	*Xij	*	*	*
.	.	1FF	-bis	.	.	1c	no-	.	.	.
!	!	!	!	!	!	!	!	!	!LO:TX:t=P:problem=kreska pseudotaktowa	!
.	.	.	.	.	.	.	.	.	2e\	-bis
=105-	=105-	=105-	=105-	=105-	=105-	=105-	=105-	=105-	=105-	=105-
!	!	!	!	!	!	!LO:TX:t=P:problem=kreska pseudotaktowa	!	!	!	!
0ryy	.	00BB-/	pa-	.	.	1F	-bis	0ryy	1.d	pa-
.	.	.	.	.	.	1.B-	pa-	.	.	.
.	.	.	.	.	.	.	.	.	2c\	-cem;
=106-	=106-	=106-	=106-	=106-	=106-	=106-	=106-	=106-	=106-	=106-
0ryy	.	.	.	.	.	.	.	0ryy	0B-	.
!	!	!	!	!	!	!LO:TX:t=P:problem=kreska pseudotaktowa	!	!	!	!
.	.	.	.	.	.	2c\	.	.	.	.
.	.	.	.	.	.	2d\	-cem:;	.	.	.
.	.	.	.	.	.	2e\	.	.	.	.
=107-	=107-	=107-	=107-	=107-	=107-	=107-	=107-	=107-	=107-	=107-
0ryy	.	0FF	-cem	.	.	0f	.	0ryy	0A	.
*	*	*	*Xij	*	*	*	*	*	*	*
=-	=-	=-	=-	=-	=-	=-	=-	=-	=-	=-
*-	*-	*-	*-	*-	*-	*-	*-	*-	*-	*-
!!!system-decoration: [(s1,s2,s3,s4,s5,s6)]
!!!ENC: Mateusz Solarz
!!!END: 2022-02-02
!!!ENC: Marta Chmielewska
!!!END: 2022-02-14
!!!ENC-iiif: Antoni Szymański
!!!END-iiif: 2022-09-02
!!!YEC: Copyright 2022 Narodowy Instytut Fryderyka Chopina (https://polishscores.org)
!!!YEM: License CC-BY-4.0 (https://creativecommons.org/licenses/by/4.0)
!!!IIIF: https://repozytorium.nifc.pl/islandora/object/pl-kk%3A1/datastream/IIIF/view
